gtk-icons/Papirus-GTK/24x24/actions/view-certificate-export-server.svg

<?xml version="1.0" encoding="UTF-8" standalone="no"?>
<!-- Created with Inkscape (http://www.inkscape.org/) -->

<svg
   xmlns:osb="http://www.openswatchbook.org/uri/2009/osb"
   xmlns:dc="http://purl.org/dc/elements/1.1/"
   xmlns:cc="http://creativecommons.org/ns#"
   xmlns:rdf="http://www.w3.org/1999/02/22-rdf-syntax-ns#"
   xmlns:svg="http://www.w3.org/2000/svg"
   xmlns="http://www.w3.org/2000/svg"
   xmlns:sodipodi="http://sodipodi.sourceforge.net/DTD/sodipodi-0.dtd"
   xmlns:inkscape="http://www.inkscape.org/namespaces/inkscape"
   sodipodi:docname="view-certificate-export-server.svg"
   inkscape:export-filename="/home/sam/source-symbolic.png"
   inkscape:export-xdpi="270"
   inkscape:export-ydpi="270"
   height="24"
   id="svg7384"
   style="enable-background:new"
   version="1.1"
   inkscape:version="0.91 r13725"
   width="24">
  <sodipodi:namedview
     inkscape:bbox-nodes="true"
     inkscape:bbox-paths="false"
     bordercolor="#666666"
     borderlayer="false"
     borderopacity="1"
     inkscape:current-layer="layer12"
     inkscape:cx="8.8891609"
     inkscape:cy="13.491876"
     gridtolerance="10"
     inkscape:guide-bbox="true"
     guidetolerance="10"
     id="namedview88"
     inkscape:object-nodes="true"
     inkscape:object-paths="true"
     objecttolerance="10"
     pagecolor="#f7f7f7"
     inkscape:pageopacity="0"
     inkscape:pageshadow="2"
     showborder="true"
     showgrid="false"
     showguides="true"
     inkscape:showpageshadow="false"
     inkscape:snap-bbox="true"
     inkscape:snap-bbox-edge-midpoints="false"
     inkscape:snap-bbox-midpoints="true"
     inkscape:snap-center="false"
     inkscape:snap-global="true"
     inkscape:snap-grids="true"
     inkscape:snap-intersection-paths="true"
     inkscape:snap-midpoints="true"
     inkscape:snap-nodes="true"
     inkscape:snap-object-midpoints="true"
     inkscape:snap-others="true"
     inkscape:snap-page="false"
     inkscape:snap-smooth-nodes="true"
     inkscape:snap-to-guides="true"
     inkscape:window-height="847"
     inkscape:window-maximized="1"
     inkscape:window-width="1600"
     inkscape:window-x="0"
     inkscape:window-y="30"
     inkscape:zoom="30.14">
    <inkscape:grid
       color="#000000"
       dotted="false"
       empcolor="#0800ff"
       empopacity="0.4627451"
       empspacing="4"
       enabled="true"
       id="grid4866"
       opacity="0.16470588"
       originx="-264.0002"
       originy="-196.00336"
       snapvisiblegridlinesonly="true"
       spacingx="0.25px"
       spacingy="0.25px"
       type="xygrid"
       visible="true" />
  </sodipodi:namedview>
  <metadata
     id="metadata90">
    <rdf:RDF>
      <cc:Work
         rdf:about="">
        <dc:format>image/svg+xml</dc:format>
        <dc:type
           rdf:resource="http://purl.org/dc/dcmitype/StillImage" />
        <dc:title>Paper Symbolic Icon Theme</dc:title>
      </cc:Work>
    </rdf:RDF>
  </metadata>
  <title
     id="title8473">Paper Symbolic Icon Theme</title>
  <defs
     id="defs7386">
    <linearGradient
       id="linearGradient5606"
       osb:paint="solid">
      <stop
         id="stop5608"
         offset="0"
         style="stop-color:#000000;stop-opacity:1;" />
    </linearGradient>
    <style
       id="current-color-scheme"
       type="text/css">
      .ColorScheme-Text {
        color:#4d4d4d;
      }
      .ColorScheme-Background {
        color:#eff0f1;
      }
      .ColorScheme-Highlight {
        color:#3daee9;
      }
      .ColorScheme-ViewText {
        color:#31363b;
      }
      .ColorScheme-ViewBackground {
        color:#fcfcfc;
      }
      .ColorScheme-ViewHover {
        color:#93cee9;
      }
      .ColorScheme-ViewFocus{
        color:#3daee9;
      }
      .ColorScheme-ButtonText {
        color:#31363b;
      }
      .ColorScheme-ButtonBackground {
        color:#eff0f1;
      }
      .ColorScheme-ButtonHover {
        color:#93cee9;
      }
      .ColorScheme-ButtonFocus{
        color:#3daee9;
      }
      </style>
  </defs>
  <g
     inkscape:groupmode="layer"
     id="layer12"
     inkscape:label="actions"
     style="display:inline"
     transform="translate(-505.0004,-12.99664)">
    <path
       style="opacity:0.5;fill:#000000;fill-opacity:1;stroke:none"
       d="M 4 5 L 4 18.996094 C 6.99996 18.994994 9.99998 18.99629 13 18.998047 L 13 13.998047 L 13 13 L 13 12.998047 L 19 12.998047 L 19 13 L 20 13 L 20 5.0039062 C 14.66673 5.0059062 9.33327 4.998 4 5 z M 13 7 L 19 7 L 19 8 L 13 8 L 13 7 z M 7.5 8 C 8.331 8 9 8.6673179 9 9.4980469 L 9 10.998047 L 10 10.998047 L 10 13.998047 L 5 13.998047 L 5 10.998047 L 6 10.998047 L 6 9.4980469 C 6 8.6673179 6.669 8 7.5 8 z M 7.5 8.9980469 C 7.223 8.9980469 7 9.2211369 7 9.4980469 L 7 10.998047 L 8 10.998047 L 8 9.4980469 C 8 9.2211369 7.777 8.9980469 7.5 8.9980469 z M 13 9.9980469 L 19 9.9980469 L 19 10.998047 L 13 10.998047 L 13 9.9980469 z M 14 14 L 14 15 L 19 15 L 19 14 L 14 14 z M 14 16 L 14 17 L 19 17 L 19 16 L 14 16 z M 14 18 L 14 19 L 19 19 L 19 18 L 14 18 z "
       transform="translate(505.0004,12.99664)"
       id="path4219" />
    <g
       id="layer9"
       inkscape:label="status"
       style="display:inline"
       transform="translate(67.25841,-1.591596)" />
    <g
       id="layer1"
       inkscape:label="places"
       style="display:inline"
       transform="translate(308.25861,-618.59159)" />
    <g
       id="layer14"
       inkscape:label="mimetypes"
       style="display:inline"
       transform="translate(67.25841,-1.591596)" />
    <g
       id="layer15"
       inkscape:label="emblems"
       style="display:inline"
       transform="translate(67.25841,-1.591596)" />
    <g
       id="g71291"
       inkscape:label="emotes"
       style="display:inline"
       transform="translate(67.25841,-1.591596)" />
    <g
       id="layer2"
       inkscape:label="categories"
       style="display:inline"
       transform="translate(308.25861,-468.59159)" />
    <g
       transform="translate(135.38095,-951.4471)"
       style="fill:#333333"
       inkscape:label="emblem-important"
       id="g6718" />
    <g
       transform="translate(38.040554,-15.57897)"
       style="display:inline"
       inkscape:label="status"
       id="layer9-8" />
    <g
       transform="translate(279.04075,-632.57897)"
       style="display:inline"
       inkscape:label="places"
       id="layer1-9" />
    <g
       transform="translate(38.040554,-15.57897)"
       style="display:inline"
       inkscape:label="mimetypes"
       id="layer14-8" />
    <g
       transform="translate(38.040554,-15.57897)"
       style="display:inline"
       inkscape:label="emblems"
       id="layer15-0" />
    <g
       transform="translate(38.040554,-15.57897)"
       style="display:inline"
       inkscape:label="emotes"
       id="g71291-9" />
    <g
       transform="translate(279.04075,-482.57897)"
       style="display:inline"
       inkscape:label="categories"
       id="layer2-2" />
    <g
       transform="translate(38.040554,-15.57897)"
       style="display:inline"
       inkscape:label="actions"
       id="layer12-8" />
    <g
       id="layer12-7"
       inkscape:label="actions"
       style="display:inline"
       transform="translate(67.25841,-1.591596)" />
    <g
       transform="matrix(0.3,0,0,0.33333333,491.86135,27.493023)"
       id="g4315"
       style="enable-background:new">
      <g
         id="layer12-5"
         inkscape:label="actions"
         style="display:inline"
         transform="translate(-505.0002,-41)" />
    </g>
    <g
       id="layer9-1"
       inkscape:label="status"
       style="display:inline"
       transform="translate(70.2454,0.17311)" />
    <g
       id="layer1-94"
       inkscape:label="places"
       style="display:inline"
       transform="translate(311.2456,-616.82689)" />
    <g
       id="layer14-80"
       inkscape:label="mimetypes"
       style="display:inline"
       transform="translate(70.2454,0.17311)" />
    <g
       id="layer15-4"
       inkscape:label="emblems"
       style="display:inline"
       transform="translate(70.2454,0.17311)" />
    <g
       id="g71291-1"
       inkscape:label="emotes"
       style="display:inline"
       transform="translate(70.2454,0.17311)" />
    <g
       id="layer2-1"
       inkscape:label="categories"
       style="display:inline"
       transform="translate(311.2456,-466.82689)" />
    <g
       id="layer12-79"
       inkscape:label="actions"
       style="display:inline"
       transform="translate(70.2454,0.17311)" />
  </g>
</svg>

<?xml version="1.0" encoding="UTF-8" standalone="no"?>
<!-- Created with Inkscape (http://www.inkscape.org/) -->
<svg id="svg7384" xmlns:rdf="http://www.w3.org/1999/02/22-rdf-syntax-ns#" style="enable-background:new" xmlns="http://www.w3.org/2000/svg" xmlns:osb="http://www.openswatchbook.org/uri/2009/osb" height="24" width="24" version="1.1" xmlns:cc="http://creativecommons.org/ns#" xmlns:dc="http://purl.org/dc/elements/1.1/">
 <metadata id="metadata90">
  <rdf:RDF>
   <cc:Work rdf:about="">
    <dc:format>image/svg+xml</dc:format>
    <dc:type rdf:resource="http://purl.org/dc/dcmitype/StillImage"/>
    <dc:title>Paper Symbolic Icon Theme</dc:title>
   </cc:Work>
  </rdf:RDF>
 </metadata>
 <title id="title8473">Paper Symbolic Icon Theme</title>
 <defs id="defs7386">
  <style id="current-color-scheme" type="text/css">.ColorScheme-Text {
        color:#4d4d4d;
      }
      .ColorScheme-Background {
        color:#eff0f1;
      }
      .ColorScheme-Highlight {
        color:#3daee9;
      }
      .ColorScheme-ViewText {
        color:#31363b;
      }
      .ColorScheme-ViewBackground {
        color:#fcfcfc;
      }
      .ColorScheme-ViewHover {
        color:#93cee9;
      }
      .ColorScheme-ViewFocus{
        color:#3daee9;
      }
      .ColorScheme-ButtonText {
        color:#31363b;
      }
      .ColorScheme-ButtonBackground {
        color:#eff0f1;
      }
      .ColorScheme-ButtonHover {
        color:#93cee9;
      }
      .ColorScheme-ButtonFocus{
        color:#3daee9;
      }</style>
 </defs>
 <g id="layer12" transform="translate(-505 -12.997)">
  <path id="path4219" opacity=".5" d="m4 5v13.996c3-0.001 6 0 9 0.002v-5-0.998-0.002h6v0.002h1v-7.9961c-5.333 0.002-10.667-0.0059-16-0.0039zm9 2h6v1h-6v-1zm-5.5 1c0.831 0 1.5 0.6673 1.5 1.498v1.5h1v3h-5v-3h1v-1.5c0-0.8307 0.669-1.498 1.5-1.498zm0 0.998c-0.277 0-0.5 0.2231-0.5 0.5v1.5h1v-1.5c0-0.2769-0.223-0.5-0.5-0.5zm5.5 1h6v1h-6v-1zm1 4.002v1h5v-1h-5zm0 2v1h5v-1h-5zm0 2v1h5v-1h-5z" transform="translate(505 12.997)"/>
  <g id="g4315" style="enable-background:new" transform="matrix(.3 0 0 .33333 491.86 27.493)"></g>
 </g>
</svg>
